X:5
T:No.38 Highland Fling
C:highland
M:4/4
L:1/8
K:G
eA (3AAA edfd|eA (3AAA g2 fa|
eA (3AAA edge|dBGB d2 fa|
eA (3AAA egfd|eA (3AAA g2 fg|
(3agf ge fdeB|dBGB g2 fg||
aA (3AAA BA (3AAA|aA (3AAA g2 fg|
aA (3AAA edge|dBGB d2 fg|
aA (3AAA eA (3AAA|aA (3AAA g2 fg|
(3agf ge fdeB|dBGB g2 fa||
